X: 30693
T: Orange Rogue, The
R: jig
M: 6/8
K: Eminor
B|ege dBA|GBd e2 g|BGB def|gab agf|
ege dBA|GAB d2e|BGB def|e3 e3:|

